X: 7694
T: Colito Fortusa
R: mazurka
M: 3/4
K: Amixolydian
EA Ac de|g2 Be gf|~e2 Ac de|~d2 Gd Fd|
EA Ac de|g2 Be gf|~e2 Ac de|dB GB A2:|
|:FB Bc de|ef Bc df|~e2 dc de|dc Bd cA|
FB Bc de|ef Bc df|~e2 dc de|1 dc Bd cA:|2 dc B^A B2||
|:EA Ac de|g2 Be gf|~e2 Ac de|~d2 Gd Fd|
EA Ac de|g2 Be gf|~e2 Ac de|1 dB GB A2:|2 dB ^GB A2||
M:12/8
|:^GAB =c2 GAB cd cB|^GAB =c2 dd cc BBA|
^GAB =c2 GAB cd cB|^GAB =c2 dd cc BBA:|

